svgs/light/bacteria.svg

<svg xmlns="http://www.w3.org/2000/svg" viewBox="0 0 640 512"><!--! Font Awesome Pro 6.0.0-alpha3 by @fontawesome - https://fontawesome.com License - https://fontawesome.com/license (Commercial License) --><path d="M208 128c-8.836 0-16 7.162-16 16c0 8.836 7.164 16 16 16s16-7.164 16-16C224 135.2 216.8 128 208 128zM128 200C114.7 200 104 210.7 104 224S114.7 248 128 248c13.25 0 24-10.75 24-24S141.3 200 128 200zM615.7 230.8l11.58-3.425c9.439-2.781 14.81-12.65 12-22.04c-3.041-10.21-13.57-14.52-22.14-11.95l-11.27 3.33c-8.088-15.15-20.68-27.55-36.4-35.43l2.888-11.06c2.469-9.477-3.248-19.15-12.77-21.62c-10.36-2.639-19.46 4.048-21.72 12.71l-2.865 10.97c-1.027-.0371-2.073-.2574-3.096-.2574c-16.64 0-32.32 5.173-45.66 13.89L477.6 157.1c-3.777-3.873-15.44-9.779-25.19-.3691c-7.062 6.822-7.225 18.04-.3711 25.07l9.14 9.373c-5.854 9.221-10.17 19.6-12.08 31.05c-.8887 5.328-2.244 10.49-3.801 15.56L436.2 233.5c-8.855-4.139-19.48-.4082-23.69 8.508c-4.186 8.854-.3599 19.42 8.546 23.58l8.797 4.115c-14.92 22.07-34.42 33.57-34.83 33.83l-3.922-8.855c-3.922-8.822-14.33-13.05-23.49-9.074c-9 3.959-13.08 14.42-9.115 23.39l4.041 9.127c-4.078 1.135-8.14 2.324-12.38 3.031c-12.6 2.098-23.91 7.092-33.76 13.9l-9.996-9.012C299.5 319.7 288.1 319.7 281.3 327.3c-6.611 7.262-6.055 18.47 1.24 25.04l9.713 8.756c-8.49 14.18-12.74 30.77-11.64 48.17l-11.86 3.512c-9.428 2.793-14.8 12.66-11.99 22.05c2.783 9.385 12.69 14.71 22.15 11.94l11.34-3.359c8.287 15.49 20.99 27.86 36.38 35.57l-2.839 10.85c-2.48 9.479 3.224 19.16 12.75 21.62c9.566 2.482 19.25-3.221 21.72-12.69l2.82-10.78c5.508 .1875 11.11-.1523 16.75-1.102c11.37-1.893 22.23-5.074 33.1-8.24l3.379 9.455c3.305 9.223 13.5 14.11 22.75 10.76c9.266-3.277 14.1-13.41 10.81-22.65l-3.498-9.792c15.41-6.654 30.08-14.46 43.95-23.57l6.321 8.429c5.891 7.838 17.05 9.443 24.93 3.602c7.885-5.863 9.496-16.97 3.617-24.82l-6.457-8.611c12.66-10.78 24.33-22.54 34.96-35.33l8.816 6.413c7.932 5.795 19.08 4.076 24.89-3.855c5.811-7.906 4.07-19-3.874-24.77l-8.885-6.465c8.893-13.88 16.54-28.52 22.99-43.91l10.47 3.59c9.334 3.188 19.44-1.719 22.64-10.99c3.213-9.258-1.739-19.35-11.04-22.53l-10.33-3.541c2.791-9.961 5.793-19.84 7.521-30.21C615.9 243.4 616.1 237 615.7 230.8zM583.3 244.5c-18 108-102.7 192.7-210.8 210.8c-2.855 .4805-5.754 .7246-8.617 .7246c-25.04 0-47.03-18.69-51.16-43.48c-2.285-13.7 .9043-27.47 8.977-38.77s20.06-18.78 33.77-21.06c64.21-10.71 114.5-61.04 125.3-125.3c4.195-25.18 25.72-43.46 51.18-43.46c25.96 0 39.44 17.62 42.42 21.79C582.4 217.1 585.6 230.8 583.3 244.5zM416 360c-13.26 0-24 10.74-24 24c0 13.25 10.74 24 24 24c13.25 0 24-10.75 24-24C440 370.7 429.3 360 416 360zM272.3 226.4c9-3.957 13.08-14.42 9.115-23.39L277.4 193.9c4.078-1.135 8.14-2.324 12.38-3.031c12.6-2.098 23.91-7.094 33.76-13.9l9.996 9.012c6.969 6.303 18.28 6.326 25.15-1.236c6.609-7.26 6.053-18.47-1.24-25.04l-9.713-8.756c8.49-14.18 12.74-30.77 11.64-48.18l11.86-3.511c9.428-2.793 14.8-12.66 11.99-22.05c-2.781-9.385-12.69-14.71-22.15-11.94l-11.34 3.357C341.5 53.13 328.8 40.76 313.4 33.05l2.838-10.85c2.482-9.477-3.223-19.16-12.74-21.62C293.9-1.901 284.2 3.801 281.8 13.27l-2.82 10.78C273.4 23.86 267.8 24.2 262.2 25.15C250.8 27.04 239.1 30.22 229.1 33.39L225.7 23.93c-3.305-9.225-13.5-14.11-22.75-10.76c-9.266 3.279-14.1 13.41-10.81 22.65l3.498 9.793C180.2 52.27 165.6 60.07 151.7 69.19L145.4 60.76C139.5 52.92 128.3 51.32 120.5 57.16C112.6 63.02 110.1 74.13 116.8 81.98l6.457 8.611c-12.66 10.78-24.33 22.54-34.96 35.33L79.52 119.5C71.59 113.7 60.44 115.4 54.63 123.4C48.82 131.3 50.56 142.4 58.51 148.1l8.885 6.465C58.5 168.5 50.86 183.1 44.41 198.5L33.93 194.9c-9.334-3.186-19.44 1.721-22.64 10.99C8.086 215.2 13.04 225.3 22.34 228.4l10.33 3.541C29.88 241.9 26.88 251.8 25.15 262.2C24.07 268.6 23.94 274.1 24.33 281.2L12.75 284.7C3.309 287.4-2.061 297.3 .7441 306.7c3.041 10.21 13.57 14.52 22.14 11.95l11.27-3.33c8.086 15.15 20.68 27.55 36.39 35.43l-2.887 11.06c-1.865 7.158 1.902 22.19 17.26 22.19c7.92 0 15.14-5.287 17.23-13.28l2.863-10.97c1.027 .0371 2.074 .2577 3.098 .2577c16.64 0 32.32-5.174 45.66-13.89l8.59 8.809c3.777 3.873 15.44 9.779 25.19 .3691c7.062-6.822 7.225-18.04 .3711-25.07l-9.14-9.373C184.6 311.6 188.9 301.3 190.9 289.8c.8887-5.332 2.244-10.5 3.801-15.56L203.8 278.5C212.6 282.6 223.2 278.9 227.4 269.1C231.6 261.1 227.8 250.6 218.9 246.4L210.1 242.3C225 220.2 244.5 208.7 244.9 208.5l3.922 8.856C252.8 226.2 263.3 230.3 272.3 226.4zM159.3 284.5c-4.193 25.19-25.72 43.46-51.18 43.46c-2.875 0-5.773-.2422-8.656-.7266c-13.7-2.279-25.69-9.758-33.76-21.06S54.43 281.2 56.71 267.5c18-108 102.7-192.7 210.8-210.7c42.96-7.229 58.13 32.87 59.78 42.75c2.283 13.7-.9043 27.47-8.977 38.77s-20.06 18.78-33.77 21.06C220.3 169.1 169.1 220.3 159.3 284.5z"/></svg>

<svg xmlns="http://www.w3.org/2000/svg" viewBox="0 0 640 512"><!-- Font Awesome Pro 6.0.0-alpha2 by @fontawesome - https://fontawesome.com License - https://fontawesome.com/license (Commercial License) --><path d="M208 128.002C199.164 128.002 192 135.164 192 144.002C192 152.838 199.164 160.002 208 160.002S224 152.838 224 144.002C224 135.164 216.836 128.002 208 128.002ZM128 200.002C114.744 200.002 104 210.746 104 224S114.744 248 128 248C141.254 248 152 237.254 152 224S141.254 200.002 128 200.002ZM615.668 230.756L627.252 227.332C636.691 224.551 642.06 214.682 639.256 205.297C636.215 195.09 625.681 190.781 617.117 193.35L605.851 196.68C597.763 181.525 585.174 169.129 569.455 161.25L572.344 150.188C574.812 140.711 569.096 131.037 559.576 128.566C549.213 125.928 540.119 132.615 537.855 141.277L534.99 152.248C533.963 152.211 532.918 151.99 531.894 151.99C515.258 151.99 499.574 157.164 486.236 165.877L477.646 157.068C473.869 153.195 462.205 147.289 452.459 156.699C445.396 163.521 445.234 174.742 452.088 181.771L461.228 191.145C455.375 200.365 451.056 210.746 449.148 222.197C448.26 227.525 446.838 232.658 445.281 237.723L436.246 233.496C427.39 229.357 416.769 233.088 412.555 242.004C408.369 250.857 412.195 261.42 421.101 265.588L429.898 269.703C414.98 291.773 395.478 303.271 395.07 303.533L391.148 294.678C387.226 285.855 376.82 281.629 367.654 285.604C358.654 289.563 354.572 300.021 358.539 308.99L362.558 318.07C358.48 319.205 354.439 320.441 350.195 321.148C337.596 323.246 326.287 328.24 316.431 335.053L306.435 326.041C299.451 319.729 288.142 319.727 281.283 327.275C274.672 334.537 275.228 345.746 282.523 352.314L292.236 361.07C283.746 375.246 279.492 391.836 280.594 409.244L268.734 412.756C259.306 415.549 253.937 425.42 256.744 434.805C259.527 444.189 269.431 449.51 278.894 446.74L290.234 443.381C298.521 458.869 311.222 471.242 326.611 478.951L323.771 489.797C321.291 499.275 326.996 508.959 336.517 511.418C346.084 513.9 355.767 508.197 358.236 498.732L361.056 487.953C366.564 488.141 372.166 487.801 377.805 486.852C389.17 484.959 400.039 481.777 410.904 478.611L414.283 488.066C417.588 497.289 427.781 502.172 437.035 498.824C446.301 495.547 451.137 485.41 447.844 476.176L444.346 466.385C459.752 459.73 474.428 451.924 488.291 442.813L494.611 451.242C500.502 459.08 511.658 460.686 519.545 454.844C527.43 448.98 529.041 437.875 523.162 430.025L516.705 421.414C529.369 410.637 541.035 398.879 551.664 386.084L560.48 392.496C568.412 398.291 579.556 396.572 585.365 388.641C591.176 380.734 589.435 369.641 581.492 363.869L572.607 357.404C581.5 343.521 589.142 328.881 595.594 313.492L606.066 317.082C615.4 320.27 625.502 315.363 628.701 306.094C631.914 296.836 626.963 286.746 617.662 283.561L607.33 280.02C610.121 270.059 613.123 260.178 614.851 249.805C615.926 243.361 616.056 237.008 615.668 230.756ZM583.287 244.545C565.283 352.594 480.594 437.283 372.492 455.295C369.637 455.775 366.738 456.02 363.875 456.02C338.84 456.02 316.844 437.328 312.713 412.543C310.428 398.842 313.617 385.074 321.689 373.773S341.75 354.994 355.459 352.713C419.668 342.004 470.002 291.668 480.713 227.453C484.908 202.27 506.433 183.99 531.894 183.99C557.851 183.99 571.332 201.605 574.31 205.775C582.383 217.076 585.57 230.842 583.287 244.545ZM416 360C402.744 360 392 370.744 392 384C392 397.254 402.744 408 416 408C429.254 408 440 397.254 440 384C440 370.744 429.254 360 416 360ZM272.346 226.395C281.346 222.438 285.428 211.979 281.461 203.01L277.441 193.932C281.519 192.797 285.56 191.561 289.805 190.854C302.404 188.756 313.715 183.76 323.568 176.949L333.564 185.961C340.533 192.264 351.846 192.287 358.717 184.725C365.326 177.465 364.769 166.256 357.476 159.687L347.763 150.932C356.254 136.756 360.508 120.164 359.406 102.756L371.263 99.244C380.691 96.451 386.06 86.582 383.254 77.197C380.472 67.812 370.568 62.49 361.105 65.262L349.765 68.619C341.478 53.131 328.777 40.76 313.389 33.051L316.226 22.203C318.709 12.727 313.004 3.041 303.482 0.582C293.916 -1.9 284.232 3.803 281.762 13.27L278.941 24.049C273.433 23.861 267.832 24.201 262.195 25.15C250.83 27.043 239.961 30.225 229.096 33.391L225.717 23.936C222.412 14.711 212.219 9.828 202.965 13.176C193.699 16.455 188.863 26.59 192.156 35.824L195.654 45.617C180.248 52.271 165.57 60.076 151.709 69.188L145.387 60.76C139.496 52.92 128.34 51.316 120.455 57.158C112.57 63.021 110.957 74.127 116.838 81.977L123.295 90.588C110.631 101.365 98.965 113.123 88.336 125.918L79.519 119.504C71.588 113.709 60.443 115.43 54.633 123.359C48.824 131.268 50.562 142.359 58.508 148.133L67.392 154.598C58.5 168.48 50.855 183.121 44.406 198.508L33.933 194.918C24.599 191.732 14.498 196.639 11.297 205.908C8.086 215.166 13.037 225.252 22.338 228.439L32.67 231.98C29.879 241.941 26.877 251.822 25.148 262.195C24.074 268.639 23.943 274.99 24.332 281.242L12.748 284.668C3.308 287.449 -2.061 297.318 0.744 306.703C3.785 316.91 14.318 321.221 22.883 318.652L34.148 315.322C42.234 330.477 54.824 342.871 70.543 350.75L67.656 361.813C65.791 368.971 69.558 384 84.912 384C92.832 384 100.056 378.713 102.144 370.725L105.008 359.754C106.035 359.791 107.082 360.012 108.105 360.012C124.742 360.012 140.426 354.838 153.763 346.125L162.353 354.934C166.131 358.807 177.795 364.713 187.541 355.303C194.603 348.48 194.765 337.26 187.912 330.23L178.771 320.857C184.625 311.637 188.943 301.256 190.851 289.805C191.74 284.473 193.162 279.34 194.719 274.275L203.752 278.504C212.605 282.637 223.232 278.912 227.443 269.996C231.631 261.141 227.805 250.58 218.898 246.412L210.101 242.297C225.008 220.244 244.521 208.73 244.93 208.469L248.851 217.324C252.82 226.25 263.287 230.33 272.346 226.395ZM159.285 284.547C155.092 309.732 133.566 328.012 108.105 328.012C105.23 328.012 102.332 327.77 99.449 327.285C85.75 325.006 73.762 317.527 65.689 306.227S54.43 281.158 56.713 267.455C74.717 159.408 159.406 74.719 267.506 56.707C310.461 49.479 325.639 89.576 327.287 99.459C329.57 113.16 326.383 126.928 318.31 138.229S298.248 157.008 284.541 159.289C220.332 169.998 169.996 220.334 159.285 284.547Z"/></svg>
